X: 9
T: Wise Maid, The
Z: leprecawn
S: https://thesession.org/tunes/118#setting45477
R: reel
M: 4/4
L: 1/8
K: Dmaj
|:DE|F2FG FEDE|FAAB AFED|d2eg fdec|dBAF BE~E2|
F2FG FEDE|FAAB AFED|d2eg fdec|dBAG FD:|
|:d2AG FDFA|dfaf gfeg|fAdf eAce|dfed cA ~A2|
BDGB ADFA|dfaf gfed|Bdce dBAG|FGEF D4:|

